svgs/1F468-1F3FB-200D-1F4BC.svg

<svg xmlns="http://www.w3.org/2000/svg" xmlns:xlink="http://www.w3.org/1999/xlink" preserveAspectRatio="none" viewBox="0 0 72 72"><defs><path id="a" fill="#607D8B" d="M34.2 100.75q-13.8 6.15-13.8 17.4V128h87.15v-9.85q0-10.8-13.45-17.15-12.15-5.75-29.8-5.7-18.05.05-30.1 5.45z"/><path id="b" fill="#D8D8D8" d="M53.9 95.85l-4 .5L56.25 128h8.15V95.3q-5.4 0-10.5.55z"/><path id="c" fill="#D8D8D8" d="M78.1 96.35Q72.4 95.3 64 95.3V128h7.65l6.45-31.65z"/><path id="d" fill="#444" d="M37.6 64.2l.95-4.25H33.4l1 4.25h3.2z"/><path id="e" fill="#444" d="M34.4 64.2l-.9 7.8h4.9l-.8-7.8h-3.2z"/><path id="f" fill="#DBA689" d="M30.9 56.2q0 1.75 1.2 2.75 1.15.95 3.15.95l2.05-.1q3.8 0 3.8-3.6v-5.4H30.9v5.4z"/><path id="g" fill="#FFF" d="M78.25 96.35l-5.1-.65q0 1.2-.9 3.05-1 2-2.5 3.75-2.1 2.45-5.65 3.95l10.4 11.1 3.75-21.2z"/><path id="h" fill="#455A64" d="M70.05 128h7.25l11.5-11.95-4.75-6.6 7.1-4.7-4-6.35q-5.05-1.55-10.7-2.3l-6.4 31.9z"/><path id="i" fill="#FFF" d="M55 95.7l-5.05.65 3.75 21.2 10.35-11.1q-3.5-1.5-5.6-3.95-1.5-1.75-2.5-3.75-.95-1.9-.95-3.05z"/><path id="j" fill="#455A64" d="M51.75 96.1q-3.55.45-7.45 1.35l-3.2.8-4.05 6.45 7.1 4.7-4.75 6.6 11.45 12h7.3l-6.4-31.9z"/><path id="k" fill="#DBA689" d="M106.9 66.05h-3.6v20.3q4.75 0 7.85-2.4 3.6-2.8 3.6-8.05 0-5.3-3.9-8.1l-3.95-1.75z"/><path id="l" fill="#DBA689" d="M24.7 66.05h-3.65l-3.9 1.75q-3.95 2.8-3.95 8.1 0 5.25 3.6 8.05 3.1 2.4 7.9 2.4v-20.3z"/><path id="m" fill="#FADCBC" d="M106.75 73.8q0-30.45-8.65-45.45Q87.85 10.6 64 10.6q-23.9 0-34.15 17.75-8.65 15-8.65 45.45 0 25.9 14.6 38.45Q47.05 122 64 122q16.8 0 28.1-9.65 14.65-12.55 14.65-38.55z"/><path id="n" fill="#444" d="M40.15 72.35q-1.7 2-1.7 4.85 0 2.9 1.7 4.9 1.65 2 4.05 2 2.35 0 4.05-2 1.65-2.05 1.65-4.9 0-2.85-1.65-4.85-1.7-2.05-4.05-2.05-2.4 0-4.05 2.05z"/><path id="o" fill="#444" d="M87.85 72.35q-1.7-2.05-4.05-2.05-2.4 0-4.05 2.05-1.7 2-1.7 4.85 0 2.85 1.7 4.9 1.65 2 4.05 2 2.35 0 4.05-2 1.65-2 1.65-4.9 0-2.85-1.65-4.85z"/><path id="p" fill="#513F35" d="M63.95 108.75q4.9 0 9-2.15 3.2-1.7 4.5-3.7.7-1.05.35-1.7-.35-.65-1.45-.65H51.6q-1.1 0-1.45.65-.35.65.35 1.7 1.3 2 4.5 3.7 4.1 2.15 8.95 2.15z"/><path id="q" fill="#DBA689" d="M58 90q-.65-.15-.9.3-.3.4-.05.9.7 1.15 2.4 2.2 2.2 1.35 4.55 1.35 2.35 0 4.5-1.35 1.7-1.05 2.4-2.2.25-.5 0-.9-.3-.45-.95-.3-3.15.9-5.95.9-2.85 0-6-.9z"/><path id="r" fill="#312D2D" d="M56.7 19.25q-.35-4.65-4.25-8.15Q47 6.4 36.55 6.2h-.8q-10.5.2-15.85 4.9-4 3.5-4.2 8.15-.05.35-.05.6v10.9q.2-.2.7-.5.3-.3.7-.5l.35-.15.75 5.25q4.3-6.75 5.5-14.1 3.4 2.25 6.25 3.2 2.8.95 5.85.9h.8q5.05-.05 9.25-.5l3.05-.35q.1 0 .15.1l5.15 10.75.8-5.25.35.15q.35.2.65.45.5.35.75.55v-10.9-.6z"/></defs><use transform="scale(.5625)" xlink:href="#a"/><use transform="scale(.5625)" xlink:href="#b"/><use transform="scale(.5625)" xlink:href="#c"/><use xlink:href="#d"/><use xlink:href="#e"/><use xlink:href="#f"/><use transform="scale(.5625)" xlink:href="#g"/><use transform="scale(.5625)" xlink:href="#h"/><use transform="scale(.5625)" xlink:href="#i"/><use transform="scale(.5625)" xlink:href="#j"/><use transform="matrix(.42223 0 0 .422 9 1.4)" xlink:href="#k"/><use transform="matrix(.42223 0 0 .422 9 1.4)" xlink:href="#l"/><use transform="matrix(.4224 0 0 .42215 9 1.75)" xlink:href="#m"/><use transform="matrix(.4224 0 0 .42215 9 1.75)" xlink:href="#n"/><use transform="matrix(.4224 0 0 .42215 9 1.75)" xlink:href="#o"/><use transform="matrix(.4224 0 0 .42215 9 1.75)" xlink:href="#p"/><use transform="matrix(.4224 0 0 .42215 9 1.75)" xlink:href="#q"/><use xlink:href="#r"/></svg>

<svg xmlns="http://www.w3.org/2000/svg" version="1.1" xmlns:xlink="http://www.w3.org/1999/xlink" preserveAspectRatio="none" x="0px" y="0px" width="72px" height="72px" viewBox="0 0 72 72">
<defs>
<g id="Layer1_0_FILL">
<path fill="#607D8B" stroke="none" d="
M 34.2 100.75
Q 20.4 106.9 20.4 118.15
L 20.4 128 107.55 128 107.55 118.15
Q 107.55 107.35 94.1 101 81.95 95.25 64.3 95.3 46.25 95.35 34.2 100.75 Z"/>
</g>

<g id="Layer1_1_FILL">
<path fill="#D8D8D8" stroke="none" d="
M 53.9 95.85
L 49.9 96.35 56.25 128 64.4 128 64.4 95.3
Q 59 95.3 53.9 95.85 Z"/>
</g>

<g id="Layer1_2_FILL">
<path fill="#D8D8D8" stroke="none" d="
M 78.1 96.35
Q 72.4 95.3 64 95.3
L 64 128 71.65 128 78.1 96.35 Z"/>
</g>

<g id="Layer1_3_MEMBER_0_FILL">
<path fill="#444444" stroke="none" d="
M 37.6 64.2
L 38.55 59.95 33.4 59.95 34.4 64.2 37.6 64.2 Z"/>
</g>

<g id="Layer1_3_MEMBER_1_FILL">
<path fill="#444444" stroke="none" d="
M 33.5 72
L 38.4 72 37.6 64.2 34.4 64.2 33.5 72 Z"/>
</g>

<g id="Layer1_4_FILL">
<path fill="#E49800" stroke="none" d="
M 73.05 90.3
L 54.9 90.3 54.9 99.9
Q 54.9 103.05 57.05 104.8 59.15 106.45 62.65 106.45
L 66.35 106.3
Q 73.05 106.3 73.05 99.9
L 73.05 90.3 Z"/>
</g>

<g id="Layer1_5_FILL">
<path fill="#FFFFFF" stroke="none" d="
M 78.25 96.35
L 73.15 95.7
Q 73.15 96.9 72.25 98.75 71.25 100.75 69.75 102.5 67.65 104.95 64.1 106.45
L 74.5 117.55 78.25 96.35 Z"/>
</g>

<g id="Layer1_6_FILL">
<path fill="#455A64" stroke="none" d="
M 70.05 128
L 77.3 128 88.8 116.05 84.05 109.45 91.15 104.75 87.15 98.4
Q 82.1 96.85 76.45 96.1
L 70.05 128 Z"/>
</g>

<g id="Layer1_7_FILL">
<path fill="#FFFFFF" stroke="none" d="
M 55 95.7
L 49.95 96.35 53.7 117.55 64.05 106.45
Q 60.55 104.95 58.45 102.5 56.95 100.75 55.95 98.75 55 96.85 55 95.7 Z"/>
</g>

<g id="Layer1_8_FILL">
<path fill="#455A64" stroke="none" d="
M 51.75 96.1
Q 48.2 96.55 44.3 97.45
L 41.1 98.25 37.05 104.7 44.15 109.4 39.4 116 50.85 128 58.15 128 51.75 96.1 Z"/>
</g>

<g id="Layer1_9_MEMBER_0_MEMBER_0_FILL">
<path fill="#DBA689" stroke="none" d="
M 106.9 66.05
L 103.3 66.05 103.3 86.35
Q 108.05 86.35 111.15 83.95 114.75 81.15 114.75 75.9 114.75 70.6 110.85 67.8
L 106.9 66.05 Z"/>
</g>

<g id="Layer1_9_MEMBER_0_MEMBER_1_FILL">
<path fill="#DBA689" stroke="none" d="
M 24.7 66.05
L 21.05 66.05 17.15 67.8
Q 13.2 70.6 13.2 75.9 13.2 81.15 16.8 83.95 19.9 86.35 24.7 86.35
L 24.7 66.05 Z"/>
</g>

<g id="Layer1_9_MEMBER_1_FILL">
<path fill="#FADCBC" stroke="none" d="
M 106.75 73.8
Q 106.75 43.35 98.1 28.35 87.85 10.6 64 10.6 40.1 10.6 29.85 28.35 21.2 43.35 21.2 73.8 21.2 99.7 35.8 112.25 47.05 122 64 122 80.8 122 92.1 112.35 106.75 99.8 106.75 73.8 Z"/>
</g>

<g id="Layer1_9_MEMBER_2_FILL">
<path fill="#444444" stroke="none" d="
M 40.15 72.35
Q 38.45 74.35 38.45 77.2 38.45 80.1 40.15 82.1 41.8 84.1 44.2 84.1 46.55 84.1 48.25 82.1 49.9 80.05 49.9 77.2 49.9 74.35 48.25 72.35 46.55 70.3 44.2 70.3 41.8 70.3 40.15 72.35 Z"/>
</g>

<g id="Layer1_9_MEMBER_3_FILL">
<path fill="#444444" stroke="none" d="
M 87.85 72.35
Q 86.15 70.3 83.8 70.3 81.4 70.3 79.75 72.35 78.05 74.35 78.05 77.2 78.05 80.05 79.75 82.1 81.4 84.1 83.8 84.1 86.15 84.1 87.85 82.1 89.5 80.1 89.5 77.2 89.5 74.35 87.85 72.35 Z"/>
</g>

<g id="Layer1_9_MEMBER_4_FILL">
<path fill="#513F35" stroke="none" d="
M 63.95 108.75
Q 68.85 108.75 72.95 106.6 76.15 104.9 77.45 102.9 78.15 101.85 77.8 101.2 77.45 100.55 76.35 100.55
L 51.6 100.55
Q 50.5 100.55 50.15 101.2 49.8 101.85 50.5 102.9 51.8 104.9 55 106.6 59.1 108.75 63.95 108.75 Z"/>
</g>

<g id="Layer1_9_MEMBER_5_FILL">
<path fill="#DBA689" stroke="none" d="
M 58 90
Q 57.35 89.85 57.1 90.3 56.8 90.7 57.05 91.2 57.75 92.35 59.45 93.4 61.65 94.75 64 94.75 66.35 94.75 68.5 93.4 70.2 92.35 70.9 91.2 71.15 90.7 70.9 90.3 70.6 89.85 69.95 90 66.8 90.9 64 90.9 61.15 90.9 58 90 Z"/>
</g>

<g id="Layer1_9_MEMBER_6_FILL">
<path fill="#312D2D" stroke="none" d="
M 56.7 19.25
Q 56.35 14.6 52.45 11.1 47 6.4 36.55 6.2
L 35.75 6.2
Q 25.25 6.4 19.9 11.1 15.9 14.6 15.7 19.25 15.65 19.6 15.65 19.85
L 15.65 30.75
Q 15.85 30.55 16.35 30.25 16.65 29.95 17.05 29.75
L 17.4 29.6 18.15 34.85
Q 22.45 28.1 23.65 20.75 27.05 23 29.9 23.95 32.7 24.9 35.75 24.85
L 36.55 24.85
Q 41.6 24.8 45.8 24.35
L 48.85 24
Q 48.95 24 49 24.1
L 54.15 34.85 54.95 29.6 55.3 29.75
Q 55.65 29.95 55.95 30.2 56.45 30.55 56.7 30.75
L 56.7 19.85
Q 56.7 19.6 56.7 19.25 Z"/>
</g>
</defs>

<g id="Layer_1">
<g transform="matrix( 0.5625, 0, 0, 0.5625, 0,0) ">
<use xlink:href="#Layer1_0_FILL"/>
</g>

<g transform="matrix( 0.5625, 0, 0, 0.5625, 0,0) ">
<use xlink:href="#Layer1_1_FILL"/>
</g>

<g transform="matrix( 0.5625, 0, 0, 0.5625, 0,0) ">
<use xlink:href="#Layer1_2_FILL"/>
</g>

<g transform="matrix( 1, 0, 0, 1, 0,0) ">
<use xlink:href="#Layer1_3_MEMBER_0_FILL"/>
</g>

<g transform="matrix( 1, 0, 0, 1, 0,0) ">
<use xlink:href="#Layer1_3_MEMBER_1_FILL"/>
</g>

<g transform="matrix( 0.5625, 0, 0, 0.5625, 0,0) ">
<use xlink:href="#Layer1_4_FILL"/>
</g>

<g transform="matrix( 0.5625, 0, 0, 0.5625, 0,0) ">
<use xlink:href="#Layer1_5_FILL"/>
</g>

<g transform="matrix( 0.5625, 0, 0, 0.5625, 0,0) ">
<use xlink:href="#Layer1_6_FILL"/>
</g>

<g transform="matrix( 0.5625, 0, 0, 0.5625, 0,0) ">
<use xlink:href="#Layer1_7_FILL"/>
</g>

<g transform="matrix( 0.5625, 0, 0, 0.5625, 0,0) ">
<use xlink:href="#Layer1_8_FILL"/>
</g>

<g transform="matrix( 0.4222412109375, 0, 0, 0.4220123291015625, 9,1.4) ">
<use xlink:href="#Layer1_9_MEMBER_0_MEMBER_0_FILL"/>
</g>

<g transform="matrix( 0.4222412109375, 0, 0, 0.4220123291015625, 9,1.4) ">
<use xlink:href="#Layer1_9_MEMBER_0_MEMBER_1_FILL"/>
</g>

<g transform="matrix( 0.422393798828125, 0, 0, 0.422149658203125, 9,1.75) ">
<use xlink:href="#Layer1_9_MEMBER_1_FILL"/>
</g>

<g transform="matrix( 0.422393798828125, 0, 0, 0.422149658203125, 9,1.75) ">
<use xlink:href="#Layer1_9_MEMBER_2_FILL"/>
</g>

<g transform="matrix( 0.422393798828125, 0, 0, 0.422149658203125, 9,1.75) ">
<use xlink:href="#Layer1_9_MEMBER_3_FILL"/>
</g>

<g transform="matrix( 0.422393798828125, 0, 0, 0.422149658203125, 9,1.75) ">
<use xlink:href="#Layer1_9_MEMBER_4_FILL"/>
</g>

<g transform="matrix( 0.422393798828125, 0, 0, 0.422149658203125, 9,1.75) ">
<use xlink:href="#Layer1_9_MEMBER_5_FILL"/>
</g>

<g transform="matrix( 1, 0, 0, 1, 0,0) ">
<use xlink:href="#Layer1_9_MEMBER_6_FILL"/>
</g>
</g>

<g id="Camada_2"/>
</svg>
